img/cup.svg

<svg width="30" height="39" viewBox="0 0 30 39" fill="none" xmlns="http://www.w3.org/2000/svg">
<g clip-path="url(#clip0_521_3158)" filter="url(#filter0_d_521_3158)">
<path fill-rule="evenodd" clip-rule="evenodd" d="M15.0005 26.933C13.0121 26.9349 11.0682 26.4005 9.41767 25.3983C8.35323 24.754 7.43471 23.932 6.71145 22.9763C6.34918 22.4975 6.03888 21.9881 5.78489 21.4554C5.26305 20.3566 4.99465 19.1731 4.99609 17.9774V3.21951C4.99609 3.16145 5.02153 3.10576 5.06686 3.06462C5.11219 3.02348 5.1737 3.00024 5.23793 3H24.76C24.8239 3.00096 24.8849 3.02445 24.9299 3.06546C24.9748 3.10648 25.0003 3.16176 25.0009 3.21951V17.9765C25.0026 19.1728 24.7331 20.3568 24.209 21.4554C23.7041 22.5213 22.9761 23.489 22.065 24.3053C21.6097 24.7112 21.1137 25.078 20.5834 25.401C20.0474 25.7258 19.4785 26.0037 18.8843 26.2311C17.6544 26.6968 16.3339 26.9354 15.0005 26.933ZM15.0005 15.8256C15.0518 15.8254 15.1019 15.8399 15.1434 15.8671L17.7557 17.5725L16.7536 14.8268C16.7373 14.7823 16.7371 14.7342 16.7531 14.6896C16.769 14.645 16.8003 14.6061 16.8424 14.5787L19.4558 12.8872H16.2281C16.1767 12.8875 16.1266 12.873 16.0849 12.8458C16.0433 12.8186 16.0123 12.7801 15.9965 12.7359L15.0005 9.98649L14.0066 12.7405C13.9914 12.7847 13.9609 12.8233 13.9195 12.8505C13.8782 12.8778 13.8282 12.8923 13.777 12.8918H10.5514L13.1637 14.5787C13.2063 14.6058 13.2381 14.6445 13.2544 14.6892C13.2708 14.7338 13.2708 14.7821 13.2545 14.8268L12.2453 17.5725L14.8587 15.8671C14.8992 15.8388 14.9493 15.8242 15.0005 15.8256Z" fill="#F8F6D0"/>
<path fill-rule="evenodd" clip-rule="evenodd" d="M25.6907 19.287H25.4917C25.5595 18.8535 25.5936 18.4162 25.5937 17.9783V17.7837H25.6958C26.3924 17.7871 27.0622 17.5406 27.558 17.0984C28.0539 16.6561 28.3354 16.0541 28.3408 15.4244V8.51816H25.5927V7.01387H29.1643C29.274 7.01326 29.3828 7.03228 29.4843 7.06985C29.5859 7.10741 29.6782 7.16276 29.756 7.23272C29.8338 7.30268 29.8955 7.38586 29.9375 7.47746C29.9796 7.56907 30.0012 7.66729 30.001 7.76647V15.4216C30.0009 15.9392 29.8843 16.4513 29.6582 16.9268C29.3242 17.6274 28.7704 18.2242 28.0653 18.6435C27.3603 19.0628 26.5347 19.2862 25.6907 19.2861V19.287Z" fill="#F8F6D0"/>
<path fill-rule="evenodd" clip-rule="evenodd" d="M4.5073 19.2871H4.30321C3.16439 19.2871 2.07171 18.8804 1.26331 18.1554C0.862885 17.7985 0.544987 17.3731 0.328107 16.9041C0.111227 16.4351 -0.000304427 15.9318 6.26865e-07 15.4235V7.76834C-0.000133485 7.66968 0.0212527 7.57195 0.0629362 7.48076C0.10462 7.38957 0.165783 7.30669 0.242929 7.23688C0.320074 7.16707 0.411688 7.11169 0.512533 7.0739C0.613377 7.03611 0.721474 7.01666 0.830641 7.01666H4.40219V8.52003H1.66332V15.4235C1.66872 16.0532 1.95019 16.6553 2.44602 17.0978C2.94185 17.5402 3.61156 17.7869 4.30831 17.7837H4.41036V17.9774C4.40877 18.4155 4.44116 18.8531 4.5073 19.2871Z" fill="#F8F6D0"/>
<path fill-rule="evenodd" clip-rule="evenodd" d="M17.5404 31.6183H12.4566C12.392 31.6183 12.33 31.5952 12.2841 31.5541C12.2382 31.513 12.2122 31.4572 12.2117 31.3988V26.41C12.2122 26.3756 12.2217 26.3418 12.2395 26.3114C12.2572 26.2809 12.2826 26.2547 12.3137 26.2348C12.3437 26.2145 12.3783 26.2006 12.4151 26.1941C12.4518 26.1875 12.4897 26.1885 12.526 26.197C14.1489 26.5917 15.8584 26.5917 17.4812 26.197C17.5173 26.1882 17.5552 26.187 17.5919 26.1936C17.6286 26.2002 17.663 26.2144 17.6927 26.235C17.7223 26.2556 17.7463 26.2821 17.7627 26.3125C17.7791 26.3428 17.7876 26.3762 17.7874 26.41V31.3988C17.7874 31.4279 17.781 31.4568 17.7685 31.4837C17.756 31.5105 17.7378 31.5349 17.7148 31.5553C17.6918 31.5758 17.6646 31.5919 17.6346 31.6027C17.6047 31.6135 17.5727 31.6188 17.5404 31.6183Z" fill="#F8F6D0"/>
<path fill-rule="evenodd" clip-rule="evenodd" d="M21.7865 37H8.20844C8.14411 36.9998 8.08249 36.9766 8.03701 36.9355C7.99152 36.8943 7.96584 36.8387 7.96558 36.7805V34.9857C7.96558 34.9275 7.99116 34.8717 8.03671 34.8305C8.08226 34.7893 8.14403 34.7662 8.20844 34.7662H9.17174V33.1918C9.17174 33.1628 9.17808 33.134 9.1904 33.1072C9.20272 33.0804 9.22078 33.0561 9.24353 33.0356C9.26629 33.0151 9.29329 32.9989 9.323 32.9879C9.35271 32.9769 9.38453 32.9713 9.41665 32.9714H20.5803C20.6124 32.9713 20.6441 32.9769 20.6738 32.9879C20.7034 32.9989 20.7304 33.0152 20.753 33.0357C20.7757 33.0562 20.7937 33.0805 20.8059 33.1073C20.8181 33.1341 20.8243 33.1628 20.8242 33.1918V34.7653H21.7865C21.851 34.7653 21.9128 34.7884 21.9585 34.8295C22.0043 34.8706 22.0301 34.9265 22.0303 34.9848V36.7796C22.0303 36.8381 22.0046 36.8941 21.9589 36.9355C21.9132 36.9768 21.8511 37 21.7865 37Z" fill="#F8F6D0"/>
<path fill-rule="evenodd" clip-rule="evenodd" d="M18.8456 33.4122H11.1504C11.1184 33.4122 11.0868 33.4065 11.0572 33.3954C11.0277 33.3843 11.0009 33.368 10.9783 33.3476C10.9557 33.3271 10.9379 33.3028 10.9257 33.276C10.9136 33.2493 10.9074 33.2207 10.9075 33.1918V31.3969C10.9075 31.3387 10.9331 31.2829 10.9787 31.2417C11.0242 31.2006 11.086 31.1774 11.1504 31.1774H18.8456C18.8776 31.1773 18.9093 31.1829 18.939 31.1939C18.9686 31.2048 18.9956 31.221 19.0183 31.2413C19.0411 31.2617 19.0591 31.286 19.0715 31.3127C19.0839 31.3394 19.0903 31.368 19.0905 31.3969V33.1918C19.0902 33.2503 19.0643 33.3064 19.0184 33.3477C18.9725 33.389 18.9103 33.4122 18.8456 33.4122Z" fill="#F8F6D0"/>
</g>
<defs>
<filter id="filter0_d_521_3158" x="0" y="0" width="30" height="39" filterUnits="userSpaceOnUse" color-interpolation-filters="sRGB">
<feFlood flood-opacity="0" result="BackgroundImageFix"/>
<feColorMatrix in="SourceAlpha" type="matrix" values="0 0 0 0 0 0 0 0 0 0 0 0 0 0 0 0 0 0 127 0" result="hardAlpha"/>
<feOffset dy="2"/>
<feComposite in2="hardAlpha" operator="out"/>
<feColorMatrix type="matrix" values="0 0 0 0 0 0 0 0 0 0 0 0 0 0 0 0 0 0 0.25 0"/>
<feBlend mode="normal" in2="BackgroundImageFix" result="effect1_dropShadow_521_3158"/>
<feBlend mode="normal" in="SourceGraphic" in2="effect1_dropShadow_521_3158" result="shape"/>
</filter>
<clipPath id="clip0_521_3158">
<rect width="30" height="37" fill="white"/>
</clipPath>
</defs>
</svg>

<svg width="30" height="39" fill="none" xmlns="http://www.w3.org/2000/svg"><g clip-path="url(#a)" filter="url(#b)" fill-rule="evenodd" clip-rule="evenodd" fill="#F8F6D0"><path d="M15 26.933c-1.988.002-3.932-.532-5.582-1.535a9.652 9.652 0 0 1-2.707-2.422 8.795 8.795 0 0 1-.926-1.52 8.072 8.072 0 0 1-.789-3.479V3.22a.21.21 0 0 1 .07-.155A.256.256 0 0 1 5.239 3H24.76a.258.258 0 0 1 .17.065c.045.041.07.097.07.155v14.757a8.04 8.04 0 0 1-.791 3.478 9.02 9.02 0 0 1-2.144 2.85 10.195 10.195 0 0 1-3.18 1.926c-1.23.466-2.551.704-3.885.702Zm0-11.107a.26.26 0 0 1 .143.041l2.613 1.706-1.002-2.746a.2.2 0 0 1 0-.137.222.222 0 0 1 .088-.111l2.614-1.692h-3.228a.26.26 0 0 1-.143-.041.221.221 0 0 1-.089-.11l-.995-2.75-.994 2.755a.217.217 0 0 1-.088.11.255.255 0 0 1-.142.04h-3.226l2.613 1.688a.222.222 0 0 1 .09.11.2.2 0 0 1 0 .138l-1.009 2.746 2.614-1.706a.237.237 0 0 1 .142-.041ZM25.69 19.287h-.198a8.48 8.48 0 0 0 .102-1.309v-.194h.102a2.783 2.783 0 0 0 1.862-.686 2.271 2.271 0 0 0 .783-1.674V8.518h-2.748V7.014h3.571c.11 0 .219.018.32.056a.843.843 0 0 1 .272.163.75.75 0 0 1 .181.244c.043.092.064.19.064.29v7.655c0 .517-.117 1.03-.343 1.505a4.031 4.031 0 0 1-1.593 1.716c-.705.42-1.53.643-2.374.643v.001ZM4.507 19.287h-.204c-1.139 0-2.231-.407-3.04-1.132a3.839 3.839 0 0 1-.935-1.25A3.517 3.517 0 0 1 0 15.422V7.769c0-.098.021-.196.063-.287a.75.75 0 0 1 .18-.244.841.841 0 0 1 .27-.163.908.908 0 0 1 .318-.057h3.571V8.52H1.663v6.904c.006.63.287 1.231.783 1.674.496.442 1.166.689 1.862.686h.102v.193c-.001.439.031.876.097 1.31Z"/><path d="M17.54 31.618h-5.083a.26.26 0 0 1-.173-.064.211.211 0 0 1-.072-.155V26.41a.2.2 0 0 1 .027-.099.262.262 0 0 1 .176-.117.274.274 0 0 1 .111.003c1.623.395 3.332.395 4.955 0a.268.268 0 0 1 .212.038c.03.02.053.047.07.078.016.03.025.063.024.097v4.989c0 .029-.006.058-.018.085a.22.22 0 0 1-.054.071.265.265 0 0 1-.174.063ZM21.787 37H8.207a.257.257 0 0 1-.171-.065.21.21 0 0 1-.071-.154v-1.795a.21.21 0 0 1 .07-.155.256.256 0 0 1 .172-.065h.964v-1.574c0-.03.006-.058.018-.085a.22.22 0 0 1 .054-.071.268.268 0 0 1 .173-.064H20.58a.245.245 0 0 1 .173.064.202.202 0 0 1 .071.156v1.573h.962c.065 0 .127.023.172.065a.21.21 0 0 1 .072.155v1.795a.21.21 0 0 1-.071.155.258.258 0 0 1-.172.065Z"/><path d="M18.846 33.412H11.15a.266.266 0 0 1-.172-.064.22.22 0 0 1-.052-.072.202.202 0 0 1-.018-.084v-1.795a.21.21 0 0 1 .07-.155.257.257 0 0 1 .172-.065h7.696a.267.267 0 0 1 .172.064.22.22 0 0 1 .053.072.203.203 0 0 1 .02.084v1.795a.211.211 0 0 1-.073.156.259.259 0 0 1-.172.064Z"/></g><defs><clipPath id="a"><path fill="#fff" d="M0 0h30v37H0z"/></clipPath><filter id="b" x="0" y="0" width="30" height="39" filterUnits="userSpaceOnUse" color-interpolation-filters="sRGB"><feFlood flood-opacity="0" result="BackgroundImageFix"/><feColorMatrix in="SourceAlpha" values="0 0 0 0 0 0 0 0 0 0 0 0 0 0 0 0 0 0 127 0" result="hardAlpha"/><feOffset dy="2"/><feComposite in2="hardAlpha" operator="out"/><feColorMatrix values="0 0 0 0 0 0 0 0 0 0 0 0 0 0 0 0 0 0 0.25 0"/><feBlend in2="BackgroundImageFix" result="effect1_dropShadow_521_3158"/><feBlend in="SourceGraphic" in2="effect1_dropShadow_521_3158" result="shape"/></filter></defs></svg>
